assets/img/service/support_03.svg

<svg width="46" height="42" viewBox="0 0 46 42" fill="none" xmlns="http://www.w3.org/2000/svg">
<path d="M31.3496 8C31.9824 8 32.5449 8.28125 32.9668 8.70312L36.7637 12.5V26.1406C36.623 25.9297 36.4121 25.7891 36.2715 25.5781L26.0059 17.2812L27.834 15.5938C28.3262 15.1719 28.3262 14.4688 27.9043 14.0469C27.4824 13.5547 26.7793 13.5547 26.2871 13.9766L20.7324 19.1094C20.6621 19.1094 20.6621 19.1094 20.6621 19.1094C19.4668 20.1641 17.6387 19.8828 16.7246 18.8984C15.7402 17.8438 15.7402 16.0859 16.8652 14.9609L23.8262 8.63281C24.248 8.21094 24.7402 8 25.3027 8H31.3496ZM39.084 12.5703H45.834V30.5703H41.334C40.0684 30.5703 39.084 29.5156 39.084 28.3203V12.5703ZM42.459 28.3203C43.0215 28.3203 43.584 27.7578 43.584 27.1953C43.584 26.5625 43.0215 26.0703 42.459 26.0703C41.8262 26.0703 41.334 26.5625 41.334 27.1953C41.334 27.7578 41.8262 28.3203 42.459 28.3203ZM0.833984 30.5V12.5703H7.58398V28.25C7.58398 29.5156 6.5293 30.5 5.33398 30.5H0.833984ZM4.20898 26.0703C3.57617 26.0703 3.08398 26.5625 3.08398 27.1953C3.08398 27.7578 3.57617 28.3203 4.20898 28.3203C4.77148 28.3203 5.33398 27.7578 5.33398 27.1953C5.33398 26.5625 4.77148 26.0703 4.20898 26.0703ZM34.7949 27.3359C35.7793 28.1094 35.9199 29.5156 35.1465 30.5L34.5137 31.3438C33.6699 32.3281 32.2637 32.4688 31.3496 31.6953L30.9277 31.3438L28.748 34.0859C27.834 35.2109 26.1465 35.3516 25.0215 34.4375L23.8262 33.3828H23.7559C22.209 35.2812 19.3965 35.6328 17.4277 34.0156L11.0996 28.25H9.83398V12.5L13.6309 8.70312C14.0527 8.28125 14.6152 8 15.248 8H21.1543L15.3887 13.2734C13.3496 15.1719 13.209 18.4062 15.0371 20.4453C16.9355 22.4844 20.0996 22.6953 22.209 20.7266L24.3184 18.8281L34.7949 27.3359Z" fill="#B9AC88"/>
</svg>

<svg fill="none" height="42" viewBox="0 0 46 42" width="46" xmlns="http://www.w3.org/2000/svg"><path d="m31.3496 8c.6328 0 1.1953.28125 1.6172.70312l3.7969 3.79688v13.6406c-.1407-.2109-.3516-.3515-.4922-.5625l-10.2656-8.2969 1.8281-1.6874c.4922-.4219.4922-1.125.0703-1.5469-.4219-.4922-1.125-.4922-1.6172-.0703l-5.5547 5.1328c-.0703 0-.0703 0-.0703 0-1.1953 1.0547-3.0234.7734-3.9375-.211-.9844-1.0546-.9844-2.8125.1406-3.9375l6.961-6.32809c.4218-.42187.914-.63281 1.4765-.63281zm7.7344 4.5703h6.75v18h-4.5c-1.2656 0-2.25-1.0547-2.25-2.25zm3.375 15.75c.5625 0 1.125-.5625 1.125-1.125 0-.6328-.5625-1.125-1.125-1.125-.6328 0-1.125.4922-1.125 1.125 0 .5625.4922 1.125 1.125 1.125zm-41.625016 2.1797v-17.9297h6.749996v15.6797c0 1.2656-1.05468 2.25-2.25 2.25zm3.374996-4.4297c-.63281 0-1.125.4922-1.125 1.125 0 .5625.49219 1.125 1.125 1.125.5625 0 1.125-.5625 1.125-1.125 0-.6328-.5625-1.125-1.125-1.125zm30.58592 1.2656c.9844.7735 1.125 2.1797.3516 3.1641l-.6328.8438c-.8438.9843-2.25 1.125-3.1641.3515l-.4219-.3515-2.1797 2.7421c-.914 1.125-2.6015 1.2657-3.7265.3516l-1.1953-1.0547h-.0703c-1.5469 1.8984-4.3594 2.25-6.3282.6328l-6.3281-5.7656h-1.26562v-15.75l3.79692-3.79688c.4218-.42187.9843-.70312 1.6171-.70312h5.9063l-5.7656 5.2734c-2.0391 1.8985-2.1797 5.1328-.3516 7.1719 1.8984 2.0391 5.0625 2.25 7.1719.2813l2.1094-1.8985z" fill="#b9ac88"/></svg>
